X:917
T:Clumsy Lover, The
R:reel
C:Neil Dickie
H:Usually played in Amix, #312. Also as a jig #211.
Z:id:hn-reel-917
M:C|
K:Dmix
FAAB AFDF | GB~B2 cBAG | FAAB AFDF | G2EF GAFE |
FAAB AFDF | G2BG cBAG | FAAF GECE | EDDE D2DE :|
FAAF dAFD | G2BG dGBG | FAAF dFAF | G2EF GAFE |
FAAF dAFA | G2BG dGBG | FAAF GECE | EDDE D2DE |
F2dF dFdF | G2dG dGdG | F2dF dFdF | G2EF GAFE |
F2dF dFdF | G2dG dGdG | FAAF GECE | EDDE D2DE ||
P:Variations:
|:FA~A2 BAFA|GB~B2 cBAG|FA~A2 BAFA|GEED ~E3G|
FA~A2 BAFA|GB~B2 cBAG|FAAF GBAG|FDDE D2DE:|
|:F2AF dFAF|G2BG dGBG|F2AF dFAF|G2EF GAGE|
F2dF dFdF|G2dG dGdG|FAAF GBAG|FDDE D2DE:|

